icons/1_Primary/Guilded.svg

<svg xmlns="http://www.w3.org/2000/svg" viewBox="0 0 1024 1024">
   <circle cx="512" cy="512" r="512" style="fill:#f5c400"/>
   <path d="M369.5 421.44s.43 60.72 31.61 123.53c32 60.45 76.2 99.29 112.64 114.76 37.65-17.6 74-48.15 93.87-81.06H504.25c-26.74-22.16-47.79-58.93-52.62-101.43h303.2c-15 68.33-46.68 130.48-76.9 170.05A365 365 0 0 1 514 768h-1c-108.74-43.33-167.24-111.58-205.85-188.58C282.39 530.07 256.5 440.47 256.5 320h512a730.22 730.22 0 0 1-6.83 101.43z" style="fill:#fff"/>
</svg>

<svg width="1024" height="1024" viewBox="0 0 1024 1024" fill="none" xmlns="http://www.w3.org/2000/svg">
<g clip-path="url(#clip0_2_2349)">
<path d="M512 1024C794.77 1024 1024 794.77 1024 512C1024 229.23 794.77 0 512 0C229.23 0 0 229.23 0 512C0 794.77 229.23 1024 512 1024Z" fill="#F9DE81"/>
<path d="M369.5 421.44C369.5 421.44 369.93 482.16 401.11 544.97C433.11 605.42 477.31 644.26 513.75 659.73C551.4 642.13 587.75 611.58 607.62 578.67H504.25C477.51 556.51 456.46 519.74 451.63 477.24H754.83C739.83 545.57 708.15 607.72 677.93 647.29C635.841 702.259 578.986 744.125 514 768H513C404.26 724.67 345.76 656.42 307.15 579.42C282.39 530.07 256.5 440.47 256.5 320H768.5C768.582 353.928 766.3 387.82 761.67 421.43L369.5 421.44Z" fill="white"/>
</g>
<defs>
<clipPath id="clip0_2_2349">
<rect width="1024" height="1024" fill="white"/>
</clipPath>
</defs>
</svg>
